X: 10
P: Masurka etter Bruce Sagan
R: mazurka
Z: John Chambers <jc@trillian.mit.edu>
M: 3/4
L: 1/8
K: D
(uA>d) \
| "D"vd>uA (vAd) (udf) \
| f>A (Ad) (df) \
| "A7"f>e (ed) (dc) \
| c>B A2 (Ad) \
| "D"d>A (Ad) (df) |
| ((5f/g/f/)(e/f/) g2 f2 \
| "A7"e>g (fd) (ec) \
| "D"d2 d2 :: (fg) \
| "D"a2 (af) (gb) \
| a2 g2 f2 |
| "Em"e>f (gf) (gb) \
| "A7"a2 g2 f2 \
| "D"A2 a>f (gb) \
| a2 g2 f2 \
| "A7"e>g (fd) (ec) \
| "D"d2 d2 :|
%%newpage
